build/svg/cmd/sc_zoompanning.svg

<svg xmlns="http://www.w3.org/2000/svg" viewBox="0 0 16 16">/&gt;<path d="M8 1.5l-2 2h4l-2-2zM7.5 4v3.5H4v1h3.5V12h1V8.5H12v-1H8.5V4h-1zm-4 2l-2 2 2 2V6zm9 0v4l2-2-2-2zM6 12.5l2 2 2-2H6z" fill="#e95420" stroke="#e95420" stroke-linecap="round" stroke-linejoin="round"/></svg>

<?xml version="1.0" encoding="UTF-8" standalone="no"?>
<svg
   xmlns:dc="http://purl.org/dc/elements/1.1/"
   xmlns:cc="http://creativecommons.org/ns#"
   xmlns:rdf="http://www.w3.org/1999/02/22-rdf-syntax-ns#"
   xmlns:svg="http://www.w3.org/2000/svg"
   xmlns="http://www.w3.org/2000/svg"
   xmlns:sodipodi="http://sodipodi.sourceforge.net/DTD/sodipodi-0.dtd"
   xmlns:inkscape="http://www.inkscape.org/namespaces/inkscape"
   viewBox="0 0 16 16"
   version="1.1"
   id="svg4"
   sodipodi:docname="sc_zoompanning.svg"
   inkscape:version="0.92.5 (2060ec1f9f, 2020-04-08)"
   inkscape:export-filename="/home/jupiter007/Libreoffice yaru theme fullcolor/build/cmd/sc_zoompanning.png"
   inkscape:export-xdpi="96"
   inkscape:export-ydpi="96"><metadata
   id="metadata10">
  <rdf:RDF>
    <cc:Work
       rdf:about="">
      <dc:format>image/svg+xml</dc:format>
      <dc:type
         rdf:resource="http://purl.org/dc/dcmitype/StillImage" />
    </cc:Work>
  </rdf:RDF>
</metadata>
<defs
   id="defs8" />
<sodipodi:namedview
   pagecolor="#ffffff"
   bordercolor="#666666"
   borderopacity="1"
   objecttolerance="10"
   gridtolerance="10"
   guidetolerance="10"
   inkscape:pageopacity="0"
   inkscape:pageshadow="2"
   inkscape:window-width="1920"
   inkscape:window-height="1011"
   id="namedview6"
   showgrid="true"
   inkscape:zoom="41.7193"
   inkscape:cx="3.6042532"
   inkscape:cy="9.8972778"
   inkscape:window-x="0"
   inkscape:window-y="32"
   inkscape:window-maximized="1"
   inkscape:current-layer="svg4">
  <inkscape:grid
     type="xygrid"
     id="grid833" />
</sodipodi:namedview>
/&gt;<path
   style="fill:#e95420;fill-opacity:1;stroke:#e95420;stroke-linecap:round;stroke-linejoin:round;stroke-opacity:1"
   d="M 8 1.5 L 6 3.5 L 10 3.5 L 8 1.5 z M 7.5 4 L 7.5 7.5 L 4 7.5 L 4 8.5 L 7.5 8.5 L 7.5 12 L 8.5 12 L 8.5 8.5 L 12 8.5 L 12 7.5 L 8.5 7.5 L 8.5 4 L 7.5 4 z M 3.5 6 L 1.5 8 L 3.5 10 L 3.5 6 z M 12.5 6 L 12.5 10 L 14.5 8 L 12.5 6 z M 6 12.5 L 8 14.5 L 10 12.5 L 6 12.5 z "
   id="path22" />
</svg>
